icons/themes/default/arrow-right.svg

<svg width="16" height="16" viewBox="0 0 16 16" fill="none" xmlns="http://www.w3.org/2000/svg">
<path d="M13.7018 7.64746L14.0553 8.00098L8.99773 13.0586L8.2907 12.3516L12.1403 8.50195H2.05925V7.50195H12.1403L8.2907 3.65137L8.99773 2.94434L13.7018 7.64746Z" fill="currentColor" />
</svg>

<svg xmlns="http://www.w3.org/2000/svg" fill="none" viewBox="0 0 16 16">
  <path fill="currentColor" d="m13.702 7.647.353.354-5.057 5.058-.707-.707 3.85-3.85H2.058v-1H12.14l-3.85-3.85.708-.708 4.704 4.703Z"/>
</svg>
